X: 42442
T: Western Lilt
R: reel
M: 4/4
K: Edorian
D|:"A"CDEF GABc|"D"dD D2 ADFD|"E dor"E2 GA BAGF|EBAF GEED|
"A"CDEF GABc|"D"dD D2 ADFD|"E dor"E2 GA BAGF|1 EBAF E3 D:|2 EBAF GE E2||
|:"E"g3 e fedf|efga gfed|"Bm"eB B2 dBAF|GBAF GE E2|
"E"g3 e fedf|efga gfed|"Bm"eB B2 dBAF|GBAF E2 E2:|

